icon-themes/sifr_svg/cmd/lc_ellipsecut_unfilled.svg

<svg viewBox="0 0 24 24" xmlns="http://www.w3.org/2000/svg"><path d="m12 3c-6.627417 0-12 4.0294373-12 9 0 4.970563 5.372583 9 12 9s12-4.029437 12-9v-1zm0 2 10 7c0 3.865993-4.477153 7-10 7-5.5228475 0-10-3.134007-10-7 0-3.8659932 4.4771525-7 10-7z" fill="#555753"/></svg>

<svg xmlns="http://www.w3.org/2000/svg" viewBox="0 0 24 24">
  <path
     style="fill:#555753"
     d="M 12 3 C 5.372583 3 0 7.0294373 0 12 C 0 16.970563 5.372583 21 12 21 C 18.627417 21 24 16.970563 24 12 L 24 11 L 12 3 z M 12 5 L 22 12 C 22 15.865993 17.522847 19 12 19 C 6.4771525 19 2 15.865993 2 12 C 2 8.1340068 6.4771525 5 12 5 z "
     />
</svg>
